X: 141006
T: The SHORES OF AMERIKAY
N: AKA "Star of the County Down"
Q: "Slow."
%R: air
B: James Kerr "Merry Melodies" v.1 p.41 s.0 #6
Z: 2016 John Chambers <jc:trillian.mit.edu>
M: C
L: 1/8
K: Am
(ucB) |\
A2A2 A2(GA) | c2c2 d2(cd) | e2A2 A2(GE) | G6 (cB) |\
A2A2 A2(GA) | c2c2 d2(cd) | e2(dc) A2A2 | A6 ||
|: ue2 |\
g2e2 e2(dc) | d2d2 d2(cd) | e2A2 A2(GE) | G6 (Hc>B) |\
AAAA A2(GA) | c2c2 Hd2(cd) | e2(dc) A2A2 | A6 :|

%%sep 1 1 500
%%sep 1 1 500

